X: 25690
T: Martin Wynne's
R: reel
M: 4/4
K: Gmajor
Bd~d2 edBd|eg ~g2 a2ba|gedB eBdB|A2GA BGEG|
Bd~d2 edBd|eg ~g2 a2ba|gedB cAFA|1 (3G/A/G/F GA BGEG:|2 ~G2 Bd gdgb||
|:~a2ga bgaf|gfed BGEF|GBdB eBdB|{G}A2Bd gdgb|
~a2ga bgaf|gfed Bdef|gdBd cAFA|~G2Bd gdgb:|2 (3G/A/G/F GA BGEG||

